!!!id: EG040
!!!page: 33
!!!COM: Anonymous
!!!LYR: Anonymous
!!!PTL@@FR: Chansons Populaires du Canada
!!!OTL@@FR: Et moi je m'en passé!
!!!PUB: G. E. Desbarats
!!!YEM:
!!!PDT: 1865
!!!SMA:
!!!OMD:
!!!AGN-Laforte:
!!!AGN-type:
!!!AGN-rime:
**kern
*clefG2
*k[]
*C:
*M2/4
*
*
8dd
=1
8dd
8cc
4dd
=2
*M3/4
8aL
8gJ
8f
8g
8a
8dd
=3
*M2/4
8dd
8cc
4dd
!!LO:PB:g=original
=4
8aL
8gJ
8f
8g
=5
4a
8r
16r
16a
=6
8a
8b/
8cc
8cc
=7
8cc
8cc
4cc
!!LO:PB:g=original
=8
8a
8ff
8ee
8dd
=9
(4dd
16qccL
16qbJ
8a)
8r
=10
8.dd
16cc
8cc
16cc
16cc
=11
8f
8f
4g
!!LO:PB:g=original
=12
8.g
16g
8g
8a
=13
8fL
8eJ
[4d
=14
8d]
8r
!!LO:PB:g=original
==||
8r
==||
*
*
==|
*-
!!!RNB: penultimate rest flipped backwards in original
!!!RNB: slur in m.9 under notes in original
